X: 2032
T: Yıllar Sonra Rastladım...
C: Yıldırım Gürses
O: Turkey
F: http://compmusic.upf.edu/node/140
N: acemkurdi--sarki--semai--yillar_sonra--yildirim_gurses
N: makam= acemkurdi
N: form= sarki
N: usul= semai = 3/4
M: 3/4
L: 1/16
K: C _B   
Q: 1/4=144
%%MIDI tuningsystem comma53
d6f2 e2d2  | c6e2 d2c2  | B6d2 c2B2  | A4 ^c4 d4  | \
w:  ARANAĞME  |   |   |   | 
d6f2 e2d2  | c6e2 d2c2  | 
w:  ARANAĞME  |   | 
B6d2 c2B2  | A12  | a4 a4 a4  | a4 g4 f4  | a12  | a12  | \
w:   |   |  Yıl lar  son  |  ra  rast la  |  dım   |   | 
a4 b4 a4  | g4 f4 e4  | d12  | d12  | 
w:  ço cuk luk   |  sev gi li  |  me    |   | 
b4 b4 b4  | b4 a4 g4  | b12  | b4 a4 g4  | \
w:  O  â şi  |  nâ  ba kış  |  lar   |   | 
a4 b4 c'4  | b4 a4 g4  | a12  | a12  | a8 g2a2  | 
w:  i çi mi   |  del di  yi  |  ne    |   |  SAZ  | 
b4 a4 g4  | a8 g2a2  | (3b2c'2b2 a4 g4  | \
w:   |   |   | 
a4 g4 a4  | b4 a4 g4  | a12  | d2e2 f2g2 a4  | 
w:   |   |   |   | 
a4 b4 a4  | g4 f4 e4  | d12  | d4 e4 ^1/4f4  | \
w:  O  ba kış   |  ki  gö tü  |  rür   |  SAZ  | 
g4 a4 g4  | f4 e4 d4  | c12  | c4 d4 e4  | \
w:  be ni  yıl  |  lar ca  ge  |  ri    |   | 
f6g2 f4  | 
w:  Ha tı ram  | 
e4 d4 c4  | B12  | d12  | f4 e4 d4  | c4 d4 B4  | A12  | A12  | \
w:  da  can lan  |  dı   |  ah   |  ilk  aş kı  |  mın  gün le  |  ri    |   | 
a4 b4 a4  | g4 f4 e4  | d12  | d4 e4 ^1/4f4  | 
w:  O  ba kış   |  ki  gö tü  |  rür   |  SAZ  | 
g4 a4 g4  | f4 e4 d4  | c12  | c4 d4 e4  | \
w:  be ni  yıl  |  lar ca  ge  |  ri    |   | 
f6g2 f4  | e4 d4 c4  | B12  | d12  | f4 e4 d4  | 
w:  Ha tı ram  |  da  can lan  |  dı   |  ah   |  ilk  aş kı  | 
c4 d4 B4  | A12  | A12  | e4 .f4 z4  | .f4 .e4 .d4  | \
w:  mın  gün le  |  ri    |   |  Gel mez   |  o  gün ler   | 
.d4 .e4 z4  | .e4 .d4 .c4  | c4 .d8  | d4 c4 B4  | 
w:  dön mez   |  o  gün ler   |  mâ zi  |  de kal dı   | 
A12  | A2B2 c2d2 e2f2  | e4 .f4 z4  | .f4 .e4 .d4  | \
w:  hep    |  SAZ  |  Gel mez   |  o  gün ler   | 
.d4 .e4 z4  | .e4 .d4 .c4  | c4 .d8  | 
w:  dön mez   |  o  gün ler   |  mâ zi  | 
d4 c4 B4  | A12  | A12  | d6f2 e2d2  | c6e2 d2c2  | \
w:  de kal dı   |  hep    |   |  ARANAĞME  |   | 
B6d2 c2B2  | A4 ^c4 d4  | d6f2 e2d2  | 
w:   |   |  ARANAĞME  | 
c6e2 d2c2  | B6d2 c2B2  | A12  | a4 a4 a4  | \
w:   |   |   |  Yıl lar  son  | 
a4 g4 f4  | a12  | a12  | a4 b4 a4  | g4 f4 e4  | 
w:  ra  rast la  |  dım   |   |  ço cuk luk   |  sev gi li  | 
d12  | d12  | b4 b4 b4  | b4 a4 g4  | b12  | b4 a4 g4  | \
w:  me    |   |  O  â şi  |  nâ  ba kış  |  lar   |   | 
a4 b4 c'4  | b4 a4 g4  | a12  | a12  | a8 g2a2  | 
w:  i çi mi   |  del di  yi  |  ne    |   |  SAZ  | 
b4 a4 g4  | a8 g2a2  | (3b2c'2b2 a4 g4  | \
w:   |   |   | 
a4 g4 a4  | b4 a4 g4  | a12  | d2e2 f2g2 a4  | 
w:   |   |   |   | 
a4 b4 a4  | g4 f4 e4  | d12  | d4 e4 ^1/4f4  | \
w:  O  ba kış   |  ki  gö tü  |  rür   |  SAZ  | 
g4 a4 g4  | f4 e4 d4  | c12  | c4 d4 e4  | \
w:  be ni  yıl  |  lar ca  ge  |  ri    |   | 
f6g2 f4  | 
w:  Ha tı ram  | 
e4 d4 c4  | B12  | d12  | f4 e4 d4  | c4 d4 B4  | A12  | A12  | \
w:  da  can lan  |  dı   |  ah   |  ilk  aş kı  |  mın  gün le  |  ri    |   | 
a4 b4 a4  | g4 f4 e4  | d12  | d4 e4 ^1/4f4  | 
w:  O  ba kış   |  ki  gö tü  |  rür   |  SAZ  | 
g4 a4 g4  | f4 e4 d4  | c12  | c4 d4 e4  | \
w:  be ni  yıl  |  lar ca  ge  |  ri    |   | 
f6g2 f4  | e4 d4 c4  | B12  | d12  | f4 e4 d4  | 
w:  Ha tı ram  |  da  can lan  |  dı   |  ah   |  ilk  aş kı  | 
c4 d4 B4  | A12  | A12  | e4 .f4 z4  | .f4 .e4 .d4  | \
w:  mın  gün le  |  ri    |   |  Gel mez   |  o  gün ler   | 
.d4 .e4 z4  | .e4 .d4 .c4  | c4 .d8  | d4 c4 B4  | 
w:  dön mez   |  o  gün ler   |  mâ zi  |  de  kal dı   | 
d6f2 e2d2  | c6e2 d2c2  | B6d2 c2B2  | A4 ^c4 e4  | \
w:  hep   SAZ  |   |   |   | 
e4 .f4 z4  | .f4 .e4 .d4  | 
w:  Gel mez   |  o  gün ler   | 
.d4 .e4 z4  | .e4 .d4 .c4  | c4 .d8  | d4 c4 B4  | \
w:  dön mez   |  o  gün ler   |  mâ zi  |  de  kal dı   | 
d6f2 e2d2  | c6e2 d2c2  | B6d2 c2B2  | 
w:  hep   SAZ  |   |   | 
A8 z4  | |


